X:210
%%topspace -50
%%musicspace -15
T:St Bernard's Waltz
M:3/4
L:1/4
K:Bb
"Bb"d3 | B3 | F z ^F | G z =F | d3 | f3 | "Cm"e3- | e2 F | 
"F7"e3 | c3 | A3 | G3 | FAc | f=e_e | "Bb"d^cd | "F7"cAF ||
"Bb"d3 | B3 | F z ^F | G z =F | D3 | F2 ^F | "Eb"G2- "G7"G- | "Cm"G G A | 
"Eb"BAG | "E"BAG | "Bb"FBd | "Bb"ff"Eb"e | "Bb"d3 | "F7"c3 | "Bb"B3- | Bzz :|
"Bb"d2f | "F7"c2f | "Bb"BzB | Bzz | F2G | "F7"E2F | "Bb"D3 | "F7"FGA | 
"Bb"B3 | "C7"BAG | "F7"F2E | C3 | F2E | C3 | "Bb"G2F | "F7"FGA ||
"Bb"d2f | "F7"c2f | "Bb"BzB | Bzz | B3 | "D7"B2A | "Eb"G3 | "F7"FGA | 
"Bb"B3 | "Eb"A2G | "Bb"F2B | DFB | d2d | "F7"edc | "Bb"B3- | B z z |]

